src/assets/dark/IconStarsInactive.svg

<svg width="44" height="44" viewBox="0 0 44 44" fill="none" xmlns="http://www.w3.org/2000/svg">
<path fill-rule="evenodd" clip-rule="evenodd" d="M21.9683 43.5C33.8424 43.5 43.4683 33.8741 43.4683 22C43.4683 10.1259 33.8424 0.5 21.9683 0.5C10.0941 0.5 0.468262 10.1259 0.468262 22C0.468262 33.8741 10.0941 43.5 21.9683 43.5Z" fill="url(#paint0_linear)"/>
<path d="M18.5896 10.5847L20.2587 14.8139C20.2838 14.8767 20.3528 14.908 20.4156 14.8892L24.764 13.559C24.877 13.5276 24.9711 13.6468 24.9083 13.7409L22.6431 17.6815C22.6118 17.738 22.6243 17.8133 22.6808 17.8509L26.4331 20.4173C26.5272 20.4801 26.4959 20.6307 26.3829 20.6495L21.8901 21.3334C21.8274 21.346 21.7772 21.4025 21.7835 21.4652L22.116 25.9956C22.1223 26.1086 21.9905 26.1776 21.9027 26.096L18.5645 23.0088C18.5143 22.9649 18.439 22.9649 18.3951 23.0088L15.0569 26.096C14.9753 26.1713 14.8373 26.1086 14.8436 25.9956L15.1761 21.4652C15.1824 21.3962 15.1322 21.3397 15.0694 21.3334L10.5767 20.6495C10.4637 20.6307 10.4261 20.4863 10.5265 20.4173L14.2788 17.8509C14.3353 17.8133 14.3478 17.738 14.3165 17.6815L12.0513 13.7409C11.9948 13.6405 12.0889 13.5213 12.1956 13.559L16.544 14.8892C16.6068 14.908 16.6758 14.8767 16.7009 14.8139L18.37 10.5847C18.3951 10.4718 18.5457 10.4718 18.5896 10.5847Z" fill="white" fill-opacity="0.67"/>
<path d="M31.0734 22.9062L32.1213 25.0271L34.4681 25.3722L32.7739 27.0225L33.1692 29.3567L31.0734 28.2524L28.9777 29.3567L29.3793 27.0225L27.6851 25.3722L30.0256 25.0271L31.0734 22.9062Z" fill="white" fill-opacity="0.67"/>
<path d="M19.2471 34.4055C20.2862 34.4055 21.1286 33.5631 21.1286 32.524C21.1286 31.4849 20.2862 30.6426 19.2471 30.6426C18.2081 30.6426 17.3657 31.4849 17.3657 32.524C17.3657 33.5631 18.2081 34.4055 19.2471 34.4055Z" fill="white" fill-opacity="0.67"/>
<defs>
<linearGradient id="paint0_linear" x1="0.468263" y1="9.17608" x2="45.3146" y2="40.906" gradientUnits="userSpaceOnUse">
<stop stop-color="#3B3381"/>
<stop offset="1" stop-color="#322773"/>
</linearGradient>
</defs>
</svg>

<svg width="44" height="44" fill="none" xmlns="http://www.w3.org/2000/svg"><path fill-rule="evenodd" clip-rule="evenodd" d="M21.968 43.5c11.874 0 21.5-9.626 21.5-21.5S33.842.5 21.968.5.468 10.126.468 22s9.626 21.5 21.5 21.5z" fill="url(#paint0_linear)"/><path d="M18.59 10.585l1.669 4.229a.13.13 0 00.157.075l4.348-1.33c.113-.031.207.088.144.182l-2.265 3.94a.129.129 0 00.038.17l3.752 2.566c.094.063.063.214-.05.232l-4.493.684c-.063.013-.113.07-.107.132l.333 4.53a.126.126 0 01-.213.101l-3.338-3.087c-.05-.044-.126-.044-.17 0l-3.338 3.087c-.082.075-.22.013-.213-.1l.332-4.53a.12.12 0 00-.107-.133l-4.492-.683a.127.127 0 01-.05-.233l3.752-2.566a.129.129 0 00.037-.17l-2.265-3.94c-.056-.1.038-.22.145-.182l4.348 1.33a.13.13 0 00.157-.075l1.669-4.23c.025-.112.176-.112.22 0zM31.073 22.906l1.048 2.121 2.347.345-1.694 1.65.395 2.335-2.096-1.105-2.095 1.105.401-2.334-1.694-1.65 2.34-.346 1.048-2.12zM19.247 34.406a1.882 1.882 0 100-3.764 1.882 1.882 0 000 3.764z" fill="#fff" fill-opacity=".67"/><defs><linearGradient id="paint0_linear" x1=".468" y1="9.176" x2="45.315" y2="40.906" gradientUnits="userSpaceOnUse"><stop stop-color="#3B3381"/><stop offset="1" stop-color="#322773"/></linearGradient></defs></svg>
